X: 1
T: Remember Me
M: 4/4
L: 1/8
R: hornpipe
K: Gmaj
|:Bc| dgdB GdBG| FcAF GdBG| FD^CD EFGA| Bcd^c edB=c|
dgdB GdBG| AecA GdBG| FAcA FDEF|G2 G2 G2:|
|:d2|Bd^cd =cdAd| BdGd FdGd| Bd^cd =cdAd|dgdB GdBG|
dgdB GdBG |FcAF GdBG| FAcA  FDEF| G2 G2 G2:|
d2|Bd^cD =cdAd| (3Bdd (3Gdd (3Fdd (3Gdd|(3Bdd (3^cdd (3=cdd (3Add| Gd^cd edB=c|
dgdb GdBg|FcAF GdBG|FAcA  FDEF|G2 B2 G2 ||
